Nfc.svg

<?xml version="1.0" encoding="UTF-8" standalone="no"?><!DOCTYPE svg PUBLIC "-//W3C//DTD SVG 1.1//EN" "http://www.w3.org/Graphics/SVG/1.1/DTD/svg11.dtd"><svg width="100%" height="100%" viewBox="0 0 24 24" version="1.1" xmlns="http://www.w3.org/2000/svg" xmlns:xlink="http://www.w3.org/1999/xlink" xml:space="preserve" xmlns:serif="http://www.serif.com/" style="fill-rule:evenodd;clip-rule:evenodd;stroke-linecap:round;stroke-linejoin:round;stroke-miterlimit:10;"><path d="M12,10.6c-0.9,0 -1.4,0.7 -1.4,1.4c0,0.7 0.7,1.4 1.4,1.4c0.7,0 1.4,-0.7 1.4,-1.4c0,-0.7 -0.5,-1.4 -1.4,-1.4Zm8.6,8l0,-13.2c0,-1.1 -0.9,-2 -2,-2l-13.2,0c-1.1,0 -2,0.9 -2,2l0,13.2c0,1.1 0.9,2 2,2l13.2,0c1.1,0 2,-0.9 2,-2Zm-8.6,-8l0,-3.6l3.5,0c0.8,0 1.5,0.7 1.5,1.5l0,7c0,0.8 -0.7,1.5 -1.5,1.5l-7,0c-0.8,0 -1.5,-0.7 -1.5,-1.5l0,-7c0,-0.8 0.7,-1.5 1.5,-1.5" style="fill:none;stroke:#757575;stroke-width:0.8px;"/></svg>

<?xml version="1.0" encoding="utf-8"?>
<!-- Generator: Adobe Illustrator 21.1.0, SVG Export Plug-In . SVG Version: 6.00 Build 0)  -->
<svg version="1.1" id="Ebene_1" xmlns="http://www.w3.org/2000/svg" xmlns:xlink="http://www.w3.org/1999/xlink" x="0px" y="0px"
	 viewBox="0 0 24 24" style="enable-background:new 0 0 24 24;" xml:space="preserve">
<style type="text/css">
	.st0{fill:none;stroke:#757575;stroke-width:0.8;stroke-miterlimit:10;}
</style>
<path class="st0" d="M12,10.6c-0.9,0-1.4,0.7-1.4,1.4s0.7,1.4,1.4,1.4s1.4-0.7,1.4-1.4S12.9,10.6,12,10.6z M20.6,18.6V5.4
	c0-1.1-0.9-2-2-2H5.4c-1.1,0-2,0.9-2,2v13.2c0,1.1,0.9,2,2,2h13.2C19.7,20.6,20.6,19.7,20.6,18.6z M12,10.6c0,0,0-3.6,0-3.6h3.5
	C16.3,7,17,7.7,17,8.5v7c0,0.8-0.7,1.5-1.5,1.5h-7C7.7,17,7,16.3,7,15.5v-7C7,7.7,7.7,7,8.5,7"/>
</svg>
